!!!!SEGMENT: pl-wtm--r-101-m_moniuszko-stanislaw--koszykarz.krn
!!!cenid: 18xx:1671
!!!COM: Moniuszko, Stanisław
!!!COM-rism: pe30008351
!!!CDT: 1819/05/05-1872/06/04
!!!CNT: Polish
!!!OTL: Koszykarz
!!!PDT: 1866
!!!AGN: Secular
!!!SMS-siglum: PL-Wtm
!!!SMS-shelfmark: R 101/M
!!!NIFC-rismID: 1001095870
!!!URL-scan: http://repozytorium.nifc.pl/skany/pl-wtm-nut--r101m
!!!ONB-nifc:
!!!SMS-variant:
!!!SMS-altvar:
**kern	**dynam	**kern	**dynam	**kern	**dynam	**kern	**dynam	**kern	**dynam
*part5	*part5	*part4	*part4	*part3	*part3	*part2	*part2	*part1	*part1
*staff5	*	*staff4	*	*staff3	*	*staff2	*	*staff1	*
*I"CB.	*	*I"Vlc	*	*I"Vla.	*	*I"V. 2.	*	*I"V. 1.	*
*I'cb	*	*I'vlc	*	*I'vla	*	*I'vl 2	*	*I'vl 1	*
*clefF4	*	*clefF4	*	*clefC3	*	*clefG2	*	*clefG2	*
*Trd0c0	*	*	*	*	*	*	*	*	*
*k[b-e-a-d-g-c-]	*	*k[b-e-a-d-g-c-]	*	*k[b-e-a-d-g-c-]	*	*k[b-e-a-d-g-c-]	*	*k[b-e-a-d-g-c-]	*
*M2/4	*	*M2/4	*	*M2/4	*	*M2/4	*	*M2/4	*
*>[A,B,B,C]	*	*>[A,B,B,C]	*	*>[A,B,B,C]	*	*>[A,B,B,C]	*	*>[A,B,B,C]	*
=1	=1	=1	=1	=1	=1	=1	=1	=1	=1
!!!OMD:Allegretto.
*>A	*	*>A	*	*>A	*	*>A	*	*>A	*
*all\right	*	*all\right	*	*all\right	*	*all\right	*	*all\right	*
*2\right	*	*2\right	*	*2\right	*	*2\right	*	*2\right	*
!LO:TX:t=P:problem:znaki przykluczowe zapisane niebieską kredką	!	!LO:TX:t=P:problem:znaki przykluczowe zapisane niebieską kredką	!	!LO:TX:t=P:problem:znaki przykluczowe zapisane niebieską kredką	!	!LO:TX:t=P:problem:znaki przykluczowe zapisane niebieską kredką	!	!LO:TX:t=P:problem:znaki przykluczowe zapisane niebieską kredką	!
!	!	!	!	!	!LO:DY:b	!	!LO:DY:b	!	!
2r	.	2r	.	8r	p	8r	p	8r	.
!	!	!	!	!LO:TX:b:i:t=con sord&colon;	!	!LO:TX:a:i:t=con sord.	!	!LO:TX:a:i:t=con sord.	!
!	!	!	!	!	!	!	!	!	!LO:DY:b:rj
.	.	.	.	(>16d-\LL	.	(<16d-/LL	.	(>16cc-\LL	p
.	.	.	.	16B-\JJ)	.	16B-/JJ)	.	16b-\JJ)	.
.	.	.	.	[>4g-\	.	[<4g-^</	.	(>[>4gg-^>\	.
=2	=2	=2	=2	=2	=2	=2	=2	=2	=2
2r	.	2r	.	8g-'\]	.	8g-'/]	.	16gg-\LL]	.
.	.	.	.	.	.	.	.	16dd-\)	.
.	.	.	.	8r	.	8r	.	16b-\	.
.	.	.	.	.	.	.	.	16g-\JJ	.
.	.	.	.	4r	.	4r	.	(<16d-/LL	.
!LO:TX:b:i:t=pizz.	!	!	!	!	!	!	!	!	!
.	.	.	.	.	.	.	.	16B-/)	.
.	.	.	.	.	.	.	.	16d-/	.
!	!	!	!	!	!	!	!	!LO:TX:a:t=P:problem:fermata zapisana czerwoną kredką	!
.	.	.	.	.	.	.	.	16g-/JJ;	.
=3	=3	=3	=3	=3	=3	=3	=3	=3	=3
!	!	!LO:TX:b:i:t=con sord&colon;	!	!	!	!	!	!	!
4GG-/	.	8GG-/	.	8r	.	8r	.	8b-/L	.
.	.	8r	.	8d-\	.	8B-/	.	8g-/J	.
4r	.	8G-\	.	8r	.	8r	.	8r	.
.	.	8r	.	8c-\	.	8e-/	.	8g-/	.
=4!|:	=4!|:	=4!|:	=4!|:	=4!|:	=4!|:	=4!|:	=4!|:	=4!|:	=4!|:
*>B	*	*>B	*	*>B	*	*>B	*	*>B	*
!	!	!	!	!	!	!	!	!LO:TX:a:i:t=a=:color=red	!
4GG-/	.	8GG-/	.	8r	.	8r	.	8r	.
*	*	*	*	*tremolo	*	*tremolo	*	*	*
.	.	8r	.	8B-/L	.	8d-L 8G-/	.	8g-/	.
4r	.	8G-\	.	8B-/	.	8d- 8G-/	.	8r	.
.	.	8r	.	8B-/J	.	8d-J 8G-/	.	24g-/LL	.
.	.	.	.	.	.	.	.	24a-/	.
.	.	.	.	.	.	.	.	24g-/JJ	.
*	*	*	*	*Xtremolo	*	*Xtremolo	*	*	*
=5	=5	=5	=5	=5	=5	=5	=5	=5	=5
!	!	!	!	!	!	!	!	!	!LO:HP:b
4BB-/	.	8BB-/	.	8r	.	8r	.	8f'/L	<
.	.	8r	.	8G-/	.	8d-/	.	8g-'/	.
4GG-/	.	8GG-/	.	8r	.	8r	.	8a-'/	.
.	.	8r	.	8d-/	.	8g- 8B-/	.	8b-'/J	[[
!!LO:LB:g=original
=6	=6	=6	=6	=6	=6	=6	=6	=6	=6
*	*	*	*	*	*	*	*	*^	*
4AA-/	.	8AA-/	.	8r	.	8r	.	(<16b-/LL	8ryy	.
.	.	.	.	.	.	.	.	16a-/JJ)	.	.
!	!	!	!	!	!	!	!	!	!LO:TX:t=P:problem:stem.color=blue	!
.	.	4AA-^</	.	8c-\	.	8e-/	.	4a-^</	4g-\	.
4AA-/	.	.	.	8r	.	8r	.	.	.	.
!	!	!	!	!	!	!	!	!	!LO:TX:t=P:problem:stem.color=blue	!
.	.	(<8AA-/	.	8c-\	.	8e-/	.	8a-/	8g-\	.
=7	=7	=7	=7	=7	=7	=7	=7	=7	=7	=7
4D-\	.	8D-/)	.	8r	.	8r	.	8r	8ryy	.
!	!	!	!	!	!	!	!	!	!LO:TX:t=P:problem:stem.color=blue	!
.	.	8r	.	8c-\	.	8d-/	.	8a-/	8f\	.
4D-\	.	8D-/	.	8r	.	8r	.	8r	8ryy	.
!	!	!	!	!	!	!	!	!	!LO:TX:t=P:problem:stem.color=blue	!
.	.	8r	.	8c-\	.	8d-/	.	8a-/	8f\	.
=8	=8	=8	=8	=8	=8	=8	=8	=8	=8	=8
4G-\	.	8G-\	.	8r@	.	8r	.	8r	8ryy	.
!	!	!	!	!	!	!	!	!	!LO:TX:t=P:problem:stem.color=blue	!
.	.	8r	.	8B-/@	.	8d-/	.	8cc-/	8a-\	.
4BB-/	.	(<4BB-/	.	8ryy	.	8r	.	8r	4ryy	.
.	.	.	.	8G-/	.	8d-/	.	8g-/	.	.
*	*	*	*	*	*	*	*	*v	*v	*
=9	=9	=9	=9	=9	=9	=9	=9	=9	=9
4C-/	.	4C-/	.	8r	.	8r	.	8r	.
.	.	.	.	8A-/	.	8e-/	.	8g-/	.
4D-/	.	[<4D-/)	.	8r	.	8r	.	8r	.
.	.	.	.	(<8A-/	.	8d-/	.	8f/	.
=10	=10	=10	=10	=10	=10	=10	=10	=10	=10
4G-\	.	8D-\]	.	8G-/)	.	8r@	.	8r	.
.	.	(>4B-^>\	.	8r	.	8d-/	.	(<4g-^</	.
4D-\	.	.	.	8D-/	.	8r	.	.	.
.	.	8A-\)	.	8r	.	8d-/	.	8f/)	.
=11	=11	=11	=11	=11	=11	=11	=11	=11	=11
*	*	*	*	*rep	*	*rep	*	*	*
4G-\	.	(>16c-\LL	.	8G-/	.	8r@	.	(<16a-/LL	.
.	.	16B-\JJ)	.	.	.	.	.	16g-/JJ)	.
.	.	4B-^>\	.	8r	.	8d-/	.	4g-^</	.
4D-\	.	.	.	8D-/	.	8r	.	.	.
.	.	8A-\	.	8r	.	8d-/	.	8f/	.
*	*	*	*	*Xrep	*	*Xrep	*	*	*
=12	=12	=12	=12	=12	=12	=12	=12	=12	=12
*rep	*	*	*	*rep	*	*	*	*	*
4G-\	.	16c-\LL	.	8G-/	.	8r	.	16a-/LL	.
.	.	16B-\JJ	.	.	.	.	.	16g-/JJ	.
.	.	4B-^>\	.	8r	.	4d-^</	.	4g-^</	.
4D-\	.	.	.	8D-/	.	.	.	.	.
.	.	[>8A-^>\	.	8r	.	[<8d-/	.	[<8f^</	.
*Xrep	*	*	*	*Xrep	*	*	*	*	*
!!LO:LB:g=original
=13	=13	=13	=13	=13	=13	=13	=13	=13	=13
*rep	*	*	*	*rep	*	*	*	*	*
4G-\	.	(>16A-\LL]	.	8G-/	.	8d-/]	.	8f/]	.
.	.	16G-\JJ)	.	.	.	.	.	.	.
.	.	4G-^>\	.	8r	.	4c-/	.	4e- 4A-^</	.
4D-\	.	.	.	8D-/	.	.	.	.	.
.	.	(>8F\	.	8r	.	8c-/	.	(<8d-/	.
*Xrep	*	*	*	*Xrep	*	*	*	*	*
=14	=14	=14	=14	=14	=14	=14	=14	=14	=14
!	!	!	!	!LO:TX:t=P:problem:mixed beam	!	!	!	!	!
4G-\	.	8G-\)	.	8D-'/L	.	8r	.	8b-'/L)	.
!	!	!	!	!	!	!	!	!LO:TUP:b	!
.	.	8r	.	8d-'\J	.	8B-/	.	(<24g-/L	.
.	.	.	.	.	.	.	.	24a-/	.
.	.	.	.	.	.	.	.	24g-/JJ	.
4G-\	.	8G-\	.	8r	.	8r	.	8f'/L)	.
!	!	!	!	!LO:ACC:color=dodgerblue	!	!LO:ACC:color=dodgerblue	!	!	!
.	.	8r	.	[<8An/	.	(<[<8cn/	.	8e-/J|	.
=15	=15	=15	=15	=15	=15	=15	=15	=15	=15
4GG-/	.	8GG-/	.	(16A/LL]	.	16c/LL]	.	(<16e-/LL	.
.	.	.	.	16B-/J)	.	16d-/J)	.	16d-/JJ)	.
.	.	8r	.	8B-/J	.	8d-/J	.	4d-^</	.
4G-\	.	8G-\	.	8r	.	8r	.	.	.
!	!	!	!	!	!	!	!	!LO:TUP:b	!
.	.	8r	.	[>8d-\	.	8B-/	.	(<24g-/LL	.
.	.	.	.	.	.	.	.	24a-/	.
.	.	.	.	.	.	.	.	24g-/JJ	.
=16	=16	=16	=16	=16	=16	=16	=16	=16	=16
!	!	!	!	!	!	!	!	!	!LO:HP:b
4BB-/	.	8BB-/	.	4d-\]	.	8r	.	8f/L)	<
!	!	!	!LO:HP:b	!	!LO:HP:b	!	!LO:HP:b	!	!
.	.	8r	<	.	<	8B-'/L	<	8g-/|	.
*	*	*	*	*Xtuplet	*	*	*	*	*
4GG-/	.	8GG-/	.	12d-\L	.	8d-'/	.	8a-/|	.
.	.	.	.	12B-\	.	.	.	.	.
.	.	8r	[	.	[	8g-'/J	[[	8b-/J	[[
.	.	.	.	12d-\J	.	.	.	.	.
=17	=17	=17	=17	=17	=17	=17	=17	=17	=17
!	!LO:DY:b:rj	!	!LO:DY:b	!	!	!	!	!	!
4AA-/	f	8FF'/	mf	8ryy	.	8r	.	8r	.
!	!	!	!	!	!LO:DY:b:rj	!	!LO:DY:b:rj	!	!LO:DY:b:rj
.	.	4FF^</	.	8E-/	mf	8c-/	mf	8a-/	mf
!	!LO:DY:b:rj	!	!	!	!	!	!	!	!
4AA-/	p	.	.	8r	.	8r	.	8r	.
!	!	!	!LO:DY:b:rj	!	!LO:DY:b:rj	!	!LO:DY:b:rj	!	!LO:DY:b:rj
.	.	(<8FF/	p	8B-\	p	8e-/	p	8g-/	p
=18	=18	=18	=18	=18	=18	=18	=18	=18	=18
4D-\	.	8D-\)	.	8r	.	8r	.	8r	.
.	.	8r	.	8A-/	.	8d-/	.	8f/	.
4D-\	.	8D-\	.	8r	.	8r	.	8r	.
.	.	8r	.	8A-/	.	8d-/	.	8f/	.
!!LO:LB:g=original
=19	=19	=19	=19	=19	=19	=19	=19	=19	=19
4GG-/	.	8GG-/	.	8r	.	8r	.	8r	.
!	!	!	!	!	!	!LO:TX:a:i:t=h	!	!	!
.	.	8r	.	8G-/	.	8B-/	.	8g-/	.
4r	.	(<4BB-/	.	8r	.	8r	.	8r	.
!	!	!	!	!	!	!LO:TX:a:i:t=g	!	!	!
.	.	.	.	(>[>8d-\	.	8G-/	.	8g-/	.
=20	=20	=20	=20	=20	=20	=20	=20	=20	=20
4AA-/	.	4AA-/	.	8d-\L]	.	8r	.	8r	.
!	!	!	!	!LO:ACC:color=dodgerblue	!	!	!	!	!
.	.	.	.	8cn\J)	.	8A-/	.	8g-/	.
4D-\	.	4D-/)	.	8r	.	8r	.	8r	.
!	!	!	!	!LO:ACC:color=dodgerblue	!	!	!	!	!
.	.	.	.	8cn\	.	(<8A-/	.	8f/	.
=21	=21	=21	=21	=21	=21	=21-	=21	=21	=21
4GG-/	.	8GG-'/L	.	8ryy	.	8G-/)	.	8r	.
.	.	8D-'/	.	4B-^</	.	4d-^</	.	8g-/	.
!LO:TX:b:i:t==B:color=red	!	!	!	!	!	!	!	!	!
4GG-/	.	8GG-'/	.	.	.	.	.	8r	.
!	!	!	!	!LO:ACC:color=dodgerblue	!	!LO:ACC:color=dodgerblue	!	!LO:TX:a:i:t==B:color=red	!
.	.	8E-'/J	.	(<8An/L	.	(<8cn/	.	8g-/	.
=22	=22	=22	=22	=22	=22	=22	=22	=22	=22
!	!	!LO:TX:t=P:problem:mixed beam	!	!	!	!	!	!	!
4GG-/	.	8GG-/L	.	8B-'/J)	.	8d-'/)	.	16g-/LL	.
.	.	.	.	.	.	.	.	16f/JJ	.
.	.	8G-\J	.	4G-^/@	.	4B-^</@	.	4e-^</	.
!	!	!LO:TX:t=P:problem:mixed beam	!	!	!	!	!	!	!
4G-\	.	8GG-/L	.	.	.	.	.	.	.
.	.	8G-\J|	.	8G-'/	.	8B-'/	.	8d-/|	.
=23	=23	=23	=23	=23	=23	=23	=23	=23	=23
4d-\	.	8.G-^>\L	.	8.A-^</L	.	8.c-^</L	.	8.f^</L	.
.	.	16F\K	.	16A-/K	.	16c-/K	.	16d-/K	.
4r	.	8E-\	.	8A-'/	.	8c-'/	.	8e-/|	.
.	.	8D-\J	.	8A-'/J	.	8c-'/J	.	8f/J|	.
=24	=24	=24	=24	=24	=24	=24	=24	=24	=24
!	!	!	!	!LO:TX:t=P:problem:mixed beam	!	!	!	!	!
4D-\	.	8D-\	.	8G-/L	.	8B-/L	.	8g-/L	.
!	!	!	!	!	!	!LO:TX:a:i:t=g	!	!	!
.	.	8r	.	8b-\J 8d-\	.	8g-J 8B-/	.	8d-/J	.
4r	.	8D-\L	.	8r	.	8r	.	8r	.
.	.	8G-'\J	.	8G-'/	.	8B-'/	.	8d-/	.
=25	=25	=25	=25	=25	=25	=25	=25	=25	=25
!	!	!	!LO:HP:b	!	!	!	!	!	!
.	.	8qA-/	<	.	.	.	.	8qf/	.
4d-\	.	8.G-^>\L	.	8.A-/L	.	8.c-^</L	.	8.e-^</L	.
!	!	!	!	!	!LO:HP:b	!LO:N:vis=8	!LO:HP:b	!	!LO:HP:b
.	.	16F\K	.	16A-/K	<	16c-/K	<	16d-/K	<
4r	.	8E-\	[	8G-'/	.	8c-'/	.	8g-'/	.
.	.	8D-\J	.	8F'/J	[[	8c-'/J	[	8a-'/J	[[
!!LO:PB:g=original
=26	=26	=26	=26	=26	=26	=26	=26	=26	=26
4G-\	.	16d-\LL	.	(>4G-/	.	8r	.	16b-\LL	.
.	.	16e-\JJ	.	.	.	.	.	16cc-\JJ	.
!	!	!LO:ACC:color=dodgerblue	!	!	!	!	!	!	!
.	.	(<4f-X^>\	.	.	.	8B-/	.	(>4dd-^>\	.
!	!LO:DY:b:rj	!	!	!LO:N:acc=#	!	!	!	!	!
4E-\	sf	.	.	8Gn/L)	.	8r	.	.	.
!	!	!LO:ACC:color=dodgerblue	!	!	!	!	!	!LO:ACC:color=dodgerblue	!
.	.	8Gn\)	.	8d-/J	.	8b-/	.	8f-X/)	.
=27	=27	=27	=27	=27	=27	=27	=27	=27	=27
4A-\	.	8A-\	.	8r	.	8r	.	8d-/L	.
.	.	8r	.	8c-\	.	8f/	.	8a-/J	.
4BB-/	.	8BB-/	.	8r	.	8r	.	8r	.
!	!	!	!	!	!	!LO:ACC:color=dodgerblue	!	!	!
.	.	8r	.	8B-\	.	8dn/	.	8f/	.
=28	=28	=28	=28	=28	=28	=28	=28	=28	=28
4E-\	.	8E-\	.	8r	.	8e-/	.	8r	.
.	.	8r	.	(>4B-/	.	8r@	.	8g-/	.
4E-\	.	8E-\	.	.	.	8e-/	.	8r	.
.	.	8r	.	8G-/)@	.	8r	.	8b- 8d-/	.
=29	=29	=29	=29	=29	=29	=29	=29	=29	=29
!	!	!	!	!LO:ACC:color=dodgerblue	!LO:HP:b	!	!	!	!LO:HP:a
4AA-/	.	8AA-/	.	8cn/L|	>	8r	.	8a-'/L	>
.	.	8r	.	8B-/|	.	8cn/	.	8g-'/	.
4AA-/	.	8AA-/	.	8A-/|	.	8r	.	8f'/	.
.	.	8r	.	8G-/J|	.	(<8c/	.	8e-'/J	.
=30	=30	=30	=30	=30	=30	=30	=30	=30	=30
!	!LO:DY:b:t=pp.	!	!	!	!	!	!	!	!
4D-\	pp	8r	.	8r	.	8d-'/)	.	8r	.
!	!	!	!LO:DY:b:rj:t=pp.	!	!LO:DY:b:rj:t=pp.	!	!LO:DY:b:rj:t=pp.	!	!
.	.	4AA-^</	pp	4F^</	pp	4A-^</	pp	8d-/	.
4D-\	.	.	.	.	.	.	.	8r	.
!	!	!	!	!LO:ACC:color=dodgerblue	!	!LO:ACC:color=dodgerblue	!	!	!
.	.	[<8BB-^</	.	[<8En/	.	[<8Gn/	.	8d-/	.
=31	=31	=31	=31	=31	=31	=31	=31	=31	=31
*rep	*	*	*	*	*	*	*	*rep	*
4D-\	.	8BB-/]	.	8E/]	.	8G/]	.	8r	.
.	.	4C-^/	.	4F^</	.	4A-^</	.	8d-/	.
4D-\	.	.	.	.	.	.	.	8r	.
!	!	!LO:ACC:color=dodgerblue	!	!	!	!	!	!	!
.	.	[<8GGn^</	.	[<8Eny^</	.	[<8B-^</	.	8d-/	.
*Xrep	*	*	*	*	*	*	*	*Xrep	*
!!LO:LB:g=original
=32	=32	=32	=32	=32	=32	=32	=32	=32	=32
*rep	*	*	*	*	*	*	*	*rep	*
4D-\	.	8GG/]	.	8E/]	.	8B-/]	.	8r	.
.	.	4AA-^</	.	4F^</	.	4c-^</	.	8d-/	.
4D-\	.	.	.	.	.	.	.	8r	.
!	!	!	!	!	!	!LO:ACC:color=dodgerblue	!	!	!
.	.	(<8BB-^</	.	(<8Eny^</	.	[<8Gn/	.	[<8d-/	.
*Xrep	*	*	*	*	*	*	*	*Xrep	*
=33	=33	=33	=33	=33	=33	=33	=33	=33	=33
!	!	!	!	!	!	!	!	!LO:TUP:b:problem:klamra łukowa	!
4D-\	.	8AA-/)	.	8F/)	.	8G/]	.	24d-/LL]	.
.	.	.	.	.	.	.	.	24e-/	.
.	.	.	.	.	.	.	.	24d-/JJ	.
!	!	!	!	!	!	!	!	!LO:ACC:color=dodgerblue	!
.	.	8r	.	8r	.	8r	.	16cn'/LL	.
.	.	.	.	.	.	.	.	16d-'/JJ	.
4r	.	4r	.	4r	.	4r	.	16e-'/LL	.
.	.	.	.	.	.	.	.	16f'/	.
.	.	.	.	.	.	.	.	16g-'/	.
.	.	.	.	.	.	.	.	16a-'/JJ	.
=34	=34	=34	=34	=34	=34	=34	=34	=34	=34
!	!	!LO:TX:t=P:problem:mixed beam	!	!	!	!	!	!	!
!	!	!LO:TX:b:i:t=pizzi	!	!	!	!	!	!	!
4GG-/	.	8GG-/L	.	8r	.	8r	.	8b-'/L	.
!	!	!	!	!	!	!	!	!LO:TUP:b	!
.	.	8G-\	.	8d- 8B-\	.	8d- 8B-/	.	(<24g-/L	.
.	.	.	.	.	.	.	.	24a-/	.
.	.	.	.	.	.	.	.	24g-/JJ	.
4GG-/	.	8GG-/	.	8r	.	8r	.	8f/L)	.
.	.	8G-\J	.	8c-/	.	8c-/	.	[<8e-/J	.
=35	=35	=35	=35	=35	=35	=35	=35	=35	=35
4GG-/@	.	8GG-/	.	8r	.	8r	.	8e-/L]	.
.	.	8r	.	8G-/	.	8B-/	.	8d-/J	.
4G-\@	.	8G-\L|	.	8r	.	8r	.	8r	.
!	!	!	!	!	!	!	!	!LO:TUP:b:problem:klamra łukowa	!
.	.	8B-\J	.	(>8d-\	.	8B-/	.	24g-/LL	.
.	.	.	.	.	.	.	.	24a-/	.
.	.	.	.	.	.	.	.	24g-/JJ	.
=36	=36	=36	=36	=36	=36	=36	=36	=36	=36
4B-\@	.	(>8A-^>\L	<	8G-/)	.	8r	.	8d-'/L	.
.	.	8B-^>\	.	8r	.	8d-/	.	8g-'/J	.
4G-\@	.	8c-^>\	.	8G-/L	.	8ryy	.	8r	.
.	.	8d-^>\J)	[[	8G-/J@	.	8g-/	.	8b-/	.
=37	=37	=37	=37	=37	=37	=37	=37	=37	=37
!	!	!LO:ACC:color=dodgerblue	!	!	!	!	!	!	!
4A-\@	.	8fn'\	.	8A-/@	.	8r	.	8r	.
.	.	4e-^>\	.	8r@	.	8c-/@	.	8a-/	.
4A-\@	.	.	.	8A-/@	.	8r@	.	8r@	.
.	.	8d-\	.	8r@	.	8c-/@	.	8a-/@	.
!!LO:LB:g=original
=38	=38	=38	=38	=38	=38	=38	=38	=38	=38
4D-\@	.	8.d-\L	.	8D-/@	.	8r@	.	8r@	.
!	!	!	!	!	!	!LO:TX:t=P:problem:stem.color=blue	!	!	!
.	.	.	.	8r@	.	8f@ 8d-/@	.	8a-/@	.
.	.	16c-\K	.	.	.	.	.	.	.
4D-\@	.	8B-\	.	8D-/@	.	8r@	.	8r@	.
!	!	!	!	!	!	!LO:TX:t=P:problem:stem.color=blue	!	!	!
.	.	(>8c-\J	.	8r@	.	8f@ 8d-/@	.	8a-/@	.
=39	=39	=39	=39	=39	=39	=39	=39	=39	=39
4G-\	.	8e-'\L)	.	8G-/@	.	8r@	.	8r@	.
.	.	8d-^>\J	.	8r@	.	8g-/@	.	8b-/@	.
!LO:N:acc=#	!	!	!	!	!	!	!	!	!
4Cn/	.	8r	.	8Cn/L@	.	8r@	.	8r@	.
!	!	!LO:TX:b:i:t=gliſsando	!	!LO:ACC:color=dodgerblue	!	!	!	!	!
.	.	(8e-^>\	.	(<8An^</J	.	8e-'/	.	8g-/	.
=40	=40	=40	=40	=40	=40	=40	=40	=40	=40
4D-/	.	8D-\)	.	8B-/)	.	8r@	.	8r	.
*	*	*	*	*tuplet	*	*	*	*	*
!	!	!	!	!LO:TUP:b:problem:klamra łukowa	!	!	!	!	!
.	.	8r	.	24G-/LL	.	8d-/@	.	8g-@ 8B-/@	.
.	.	.	.	24A-/	.	.	.	.	.
.	.	.	.	24G-/JJ	.	.	.	.	.
!	!	!LO:TX:b:i:t=pizz.	!	!	!	!	!	!	!
4D-/	.	8D-\	.	8F'/L	.	8r@	.	8r@	.
!	!	!	!	!	!	!	!	!LO:S:color=dodgerblue	!
.	.	8r	.	8E-^</J	.	8c-X/@	.	(<8g-/@	.
=41	=41	=41	=41	=41	=41	=41	=41	=41	=41
!	!	!	!	!	!	!LO:TX:b:i:t=pizz.	!	!	!
4GG-/	.	8GG-/L	.	8D-'/	.	8r	.	8b-/)@	.
.	.	8D-/	.	4B- 4D-^</	.	8g- 8B-/	.	8r@	.
4GG-/	.	8GG-/	.	.	.	8r	.	8r@	.
!	!	!	!	!	!	!	!	!	!LO:DY:b:t=ppp.
.	.	8D-/J	.	8B- 8D-'/	.	8g- 8B-/	.	(<16b-/LL	ppp
.	.	.	.	.	.	.	.	16g-/JJ)	.
=42	=42	=42	=42	=42	=42	=42	=42	=42	=42
*rep	*	*rep	*	*	*	*	*	*	*
4GG-/	.	8GG-/L	.	8r	.	8r	.	(>4ee-\	.
.	.	8D-/	.	4A- 4D-^</	.	8f 8c-/	.	.	.
4GG-/	.	8GG-/	.	.	.	8r	.	8f/)	.
.	.	8D-/J	.	8A- 8D-'/	.	8f 8c-/	.	(>16cc-\LL	.
.	.	.	.	.	.	.	.	16a-\JJ)	.
*Xrep	*	*Xrep	*	*	*	*	*	*	*
=43	=43	=43	=43	=43	=43	=43	=43	=43	=43
8GG-/L	.	8GG-/L	.	8r	.	8r	.	8..ee-\L	.
!	!	!	!	!	!	!LO:TX:a:i:t=arco.	!	!	!
8BB-/	.	8BB-/	.	8d-\	.	8g- 8B-/	.	.	.
.	.	.	.	.	.	.	.	32cc-\Jkk	.
8C-/	.	8C-/	.	8r	.	8r	.	8..ff\L	.
!LO:ACC:color=dodgerblue	!	!LO:ACC:color=dodgerblue	!	!	!	!LO:ACC:color=dodgerblue	!	!	!
8Cn/J	.	8Cn/J	.	8d-\	.	8g- 8An/	.	.	.
.	.	.	.	.	.	.	.	32ee-\Jkk	.
!!LO:LB:g=original
=44	=44	=44	=44	=44	=44	=44	=44	=44	=44
4D-\@	.	8D-\L@	.	8r@	.	8r	.	(>16ee-\LL	.
.	.	.	.	.	.	.	.	16cc-\	.
!	!	!	!	!	!	!LO:TX:t=P:problem:stem.color=blue	!	!	!
.	.	8D-\J@	.	8d-\@	.	8g-@ 8B-/@	.	16b-\	.
.	.	.	.	.	.	.	.	16g-\JJ)	.
!	!	!	!	!	!	!	!	!LO:TX:t=P:problem:mixed beam	!
4D-\@	.	8r@	.	8r@	.	8r	.	8d-'/L	.
!	!	!LO:TX:a:i:t=arco:color=dodgerblue	!	!	!	!	!	!	!
!	!	!LO:S:color=dodgerblue	!	!LO:S:color=dodgerblue	!	!	!	!	!
.	.	(>8D-\@	.	(8A-/@	.	(<8f/	.	8dd-/J	.
=45	=45	=45	=45	=45	=45	=45	=45	=45	=45
8GG-/L	.	8GG-/)	.	8B-/)	.	8g-'/)	.	(8.ee-\L	.
!	!LO:DY:b:rj	!	!LO:DY:b:rj	!	!LO:DY:b:rj	!	!LO:DY:b:rj	!	!
8GG-/J	f	4GG-^</	f	4B- 4D-^</@	f	4g-^</	f	.	.
.	.	.	.	.	.	.	.	16cc-\Jk	.
8r	.	.	.	.	.	.	.	16dd-\LL	.
.	.	.	.	.	.	.	.	16cc-\	.
8GG-/	.	8GG-/	.	(<8B- 8D-/@	.	(<8g-/	.	16dd-\	.
.	.	.	.	.	.	.	.	16cc-\JJ)	.
=46	=46	=46	=46	=46	=46	=46	=46	=46	=46
8AA-/L	.	8AA-/	.	8c-/)	.	8f/L)	.	8d-/L	.
!	!LO:DY:b	!	!	!	!LO:DY:b:rj:t=fp.	!	!LO:DY:b:rj	!	!LO:DY:b
8AA-/J	sf	(4.AA-;>/	fp	(>4.c-;>/	fp	8cc-J 8d-/	sf	8ffJ 8a-/	sf
4r;>	.	.	.	.	.	4r;>	.	4r;>	.
=47	=47	=47	=47	=47	=47	=47	=47	=47	=47
8r	.	8BB-\)	.	8d-\)	.	8b- 8d-'/	.	8r	.
8BB-/L	.	8BB-'/L	.	8d-'\L	.	8g-/L|	.	8gg-\L|	.
!	!	!	!	!LO:ACC:color=dodgerblue	!	!	!	!	!
8C-/	.	8C-'/	.	8dn'\	.	8a-/|	.	8ff\|	.
!LO:TX:b:t=P:problem:♮ below	!	!LO:TX:b:t=P:problem:♮ below	!	!	!	!	!	!	!
!LO:ACC:color=dodgerblue	!	!LO:ACC:color=dodgerblue	!	!	!	!LO:ACC:color=dodgerblue	!	!	!
8Cn/J	.	8Cn'/J	.	8e-'\J	.	8an/J|	.	8ee-\J|	.
=48	=48	=48	=48	=48	=48	=48	=48	=48	=48
8D-/	.	8D-\|	.	8d-'\	.	8b-/	.	8dd-\	.
8r	.	8r	.	8r	.	8r	.	8r	.
!	!LO:DY:b:rj	!	!LO:DY:b:rj	!	!LO:DY:b:rj	!	!LO:DY:b:rj	!	!LO:DY:b:rj
8D-/	sf	8DD-/	sf	8D-/	sf	8d-/	sf	8f 8A-/	sf
8r;>	.	8r;>	.	8r;>	.	8r;>	.	8r;>	.
=49	=49	=49	=49	=49	=49	=49	=49	=49	=49
!LO:TX:a:i:t=arco.	!LO:DY:b:rj:t=pp.	!LO:TX:b:i:t=pizzi	!	!	!	!	!	!	!
[<2GG-/	pp	8GG-/L	.	8r	.	8r	.	8r	.
!	!	!	!	!	!LO:DY:b:rj:t=pp.	!	!LO:DY:b:rj	!	!LO:DY:b:t=pp.
.	.	8D-/	.	(<4D-^</	pp	(<4B-^</	pp	(<4g-^</	pp
.	.	8GG-/	.	.	.	.	.	.	.
!	!	!LO:TX:a:t=P:problem:pierwszy bemol zapisany niebieską kredką, a drugi czarnym atramentem	!	!LO:TX:a:t=P:problem:pierwszy bemol zapisany czarnym atramentem, a drugi niebieską kredką	!	!	!	!	!
!	!	!LO:ACC:color=dodgerblue	!	!LO:ACC:color=dodgerblue	!	!	!	!	!
.	.	8E--/J	.	[<8E--/	.	[<8c-/	.	8f/)	.
=50	=50	=50	=50	=50	=50	=50	=50	=50	=50
*	*	*rep	*	*	*	*	*	*	*
!	!	!LO:TX:b:t=pizz.	!	!	!	!	!	!	!
2GG-^</_<	.	8GG-/L	.	8E--/]	.	8c-/]	.	(<16a-/LL	.
.	.	.	.	.	.	.	.	16g-/JJ)	.
.	.	8D-/	.	4D-^/	.	4B-^</	.	(<4g-^</	.
.	.	8GG-/	.	.	.	.	.	.	.
!	!	!LO:TX:a:t=P:problem:pierwszy bemol zapisany niebieską kredką, a drugi czarnym atramentem	!	!LO:TX:a:t=P:problem:pierwszy bemol zapisany niebieską kredką, a drugi czarnym atramentem	!	!	!	!	!
!	!	!LO:ACC:color=dodgerblue	!	!LO:ACC:color=dodgerblue	!	!	!	!	!
.	.	8E--/J	.	8E--/	.	8c-/	.	8f/)	.
*	*	*Xrep	*	*	*	*	*	*	*
!!LO:PB:g=original
=51	=51	=51	=51	=51	=51	=51	=51	=51	=51
4GG-^</_<	.	8GG-/L	.	8E-/)	.	8c-/)	.	(<16a-/LL	.
.	.	.	.	.	.	.	.	16g-/JJ)	.
.	.	8C-/J	.	(<4D-^</	.	(>4B-^</	.	(>4g-^</	.
4GG-^</_<	.	8GG-/L	.	.	.	.	.	.	.
.	.	8Dn/J@	.	[<8Dn/@	.	[<8c-^</	.	[<8f^</	.
=52	=52	=52	=52	=52	=52	=52	=52	=52	=52
4GG-^</_<	.	8GG-/L	.	8D/]	.	8c-/]	.	8f/]	.
!	!	!	!	!LO:ACC:color=dodgerblue	!	!	!	!	!
.	.	8En/J	.	(4E-X^</	.	4c-^</	.	(>4e- 4G-^</	.
!	!	!LO:TX:a:t=P:problem:mixed beam	!	!	!	!	!	!	!
4GG-^</_<	.	8GG-/L	.	.	.	.	.	.	.
.	.	8F\J	.	8A-/)	.	8c-/)	.	8d-/)	.
=53	=53	=53	=53	=53	=53	=53	=53	=53	=53
!	!	!LO:TX:a:t=P:problem:mixed beam	!	!	!	!	!	!	!
8GG-'/]	.	8GG-/L	.	16G-/LL)	.	8r	.	8a-/L)	.
.	.	.	.	16B-/J	.	.	.	.	.
!LO:TX:b:i:t=pizzi.	!	!	!	!	!	!	!	!	!
8r	.	8G-\J	.	8d-/J	.	8B-/	.	8g-/J	.
4r	.	8G-\	.	8r	.	8r	.	8r	.
.	.	8r	.	8c-/	.	8e-/	.	8g-/	.
!	!	!	!	!	!	!	!	!LO:TX:a:t=P:problem:kreska taktowa zapisana niebieską kredką	!
=54:|!	=54:|!	=54:|!	=54:|!	=54:|!	=54:|!	=54:|!	=54:|!	=54:|!	=54:|!
*>C	*	*>C	*	*>C	*	*>C	*	*>C	*
!	!	!	!	!	!	!	!	!LO:TX:a:i:t=Come sopra A=B.	!
!LO:TX:b:t=arco	!	!	!	!	!	!	!	!	!
8GG-/	.	8GG-/yy	.	8ryy	.	8ryy	.	8ryy	.
*	*	*	*	*tremolo	*	*tremolo	*	*	*
8r	.	8ryy	.	8B-/Lyy	.	8d-Lyy 8G-/yy	.	8g-/yy	.
4r	.	8G-\yy	.	8B-/yy	.	8d-yy 8G-/yy	.	8ryy	.
.	.	8ryy	.	8B-/Jyy	.	8d-Jyy 8G-/yy	.	24g-/LLyy	.
.	.	.	.	.	.	.	.	24a-/yy	.
.	.	.	.	.	.	.	.	24g-/JJyy	.
*	*	*	*	*Xtremolo	*	*Xtremolo	*	*	*
=55	=55	=55	=55	=55	=55	=55	=55	=55	=55
!	!	!	!	!	!	!	!	!	!LO:HP:b
8BB-/	.	8BB-/yy	.	8ryy	.	8ryy	.	8f'/Lyy	<
8r	.	8r	.	8G-/yy	.	8d-/yy	.	8g-'/yy	.
8GG-/	.	8GG-/yy	.	8ryy	.	8ryy	.	8a-'/yy	.
8r	.	8ryy	.	8d-/yy	.	8g-yy 8B-/yy	.	8b-'/Jyy	[[
=56	=56	=56	=56	=56	=56	=56	=56	=56	=56
*	*	*	*	*	*	*	*	*^	*
8AA-/	.	8AA-/yy	.	8ryy	.	8ryy	.	(y<16b-/LLyy	8ryy	.
.	.	.	.	.	.	.	.	16a-/JJ)yy	.	.
!	!	!	!	!	!	!	!	!	!LO:TX:t=P:problem:stem.color=blue	!
8r	.	4AA-^</yy	.	8c-\yy	.	8e-/yy	.	4a-^/yy	4g-\yy	.
8AA-/	.	.	.	8ryy	.	8ryy	.	.	.	.
!	!	!	!	!	!	!	!	!	!LO:TX:t=P:problem:stem.color=blue	!
8r	.	(y<8AA-/yy	.	8c-\yy	.	8e-/yy	.	8a-/yy	8g-\yy	.
=57	=57	=57	=57	=57	=57	=57	=57	=57	=57	=57
8D-\	.	8D-/)yy	.	8r	.	8ryy	.	8ryy	8r	.
!	!	!	!	!yy	!	!	!	!	!LO:TX:t=P:problem:stem.color=blue	!
8r	.	8ryy	.	8c-\yy	.	8d-/yy	.	8a-/yy	8f\yy	.
8D-\	.	8D-/yy	.	8ryy	.	8ryy	.	8ryy	8ryy	.
!	!	!	!	!	!	!	!	!	!LO:TX:t=P:problem:stem.color=blue	!
8r	.	8ryy	.	8c-\yy	.	8d-/yy	.	8a-/yy	8f\yy	.
=58	=58	=58	=58	=58	=58	=58	=58	=58	=	=58
8G-\	.	8G-\yy	.	8r@yy	.	8ryy	.	8ryy	8ryy	.
!	!	!	!	!	!	!	!	!	!LO:TX:t=P:problem:stem.color=blue	!
8r	.	8ryy	.	8B-/@yy	.	8d-/yy	.	8b-/yy	8g-\yy	.
8BB-/	.	(y<4BB-/yy	.	8ryy	.	8ryy	.	8ryy	4ryy	.
8r	.	.	.	8G-/yy	.	8d-/yy	.	8g-/yy	.	.
*	*	*	*	*	*	*	*	*v	*v	*
!!LO:LB:g=original
=59	=59	=59	=59	=59	=59	=59	=59	=59	=59
8C-/	.	4C-/yy	.	8ryy	.	8ryy	.	8ryy	.
8r	.	.	.	8A-/yyyy	.	8e-/yy	.	8g-/yy	.
8D-/	.	[y<4D-/)yy	.	8ryy	.	8ryy	.	8ryy	.
8r	.	.	.	(y<8A-/yy	.	8d-/yy	.	8f/yy	.
=60	=60	=60	=60	=60	=60	=60	=60	=60	=60
8G-\	.	8D-\]yy	.	8G-/)yy	.	8r@yy	.	8ryy	.
8r	.	(y>4B-^>\yy	.	8ryy	.	8d-/yy	.	(y<4g-^</yy	.
8D-\	.	.	.	8D-/yy	.	8ryy	.	.	.
8r	.	8A-\)yy	.	8ryy	.	8d-/yy	.	8f/)yy	.
=61	=61	=61	=61	=61	=61	=61	=61	=61	=61
*rep	*	*	*	*rep	*	*rep	*	*	*
8G-\	.	(y>16c-\LLyy	.	8G-/yy	.	8ryy	.	(y<16a-/LLyy	.
.	.	16B-\JJ)yy	.	.	.	.	.	16g-/JJ)yy	.
8r	.	4B-^>\yy	.	8ryy	.	8d-/yy	.	4g-^</yy	.
8D-\	.	.	.	8D-/yy	.	8ryy	.	.	.
8r	.	8A-\yy	.	8ryy	.	8d-/yy	.	8f/yy	.
*Xrep	*	*	*	*Xrep	*	*Xrep	*	*	*
=62	=62	=62	=62	=62	=62	=62	=62	=62	=62
*rep	*	*	*	*rep	*	*	*	*	*
8G-\	.	16c-\LLyy	.	8G-/yy	.	8ryy	.	16a-/LLyy	.
.	.	16B-\JJyy	.	.	.	.	.	16g-/JJyy	.
8r	.	4B-^>\yy	.	8ryy	.	4d-^</yy	.	4g-^</yy	.
8D-\	.	.	.	8D-/yy	.	.	.	.	.
8r	.	[y>8A-^>\yy	.	8ryy	.	[y<8d-/yy	.	[y<8f^</yy	.
*Xrep	*	*	*	*Xrep	*	*	*	*	*
=63	=63	=63	=63	=63	=63	=63	=63	=63	=63
*rep	*	*	*	*rep	*	*	*	*	*
8G-\	.	(y>16A-\LL]yy	.	8G-/yy	.	8d-/]yy	.	8f/]yy	.
.	.	16G-\JJ)yy	.	.	.	.	.	.	.
8r	.	4G-^>\yy	.	8ryy	.	4c-/yy	.	4e-yy 4A-^</yy	.
8D-\	.	.	.	8D-/yy	.	.	.	.	.
8r	.	(y>8F\yy	.	8ryy	.	8c-/yy	.	(y<8d-/yy	.
*Xrep	*	*	*	*Xrep	*	*	*	*	*
=64	=64	=64	=64	=64	=64	=64	=64	=64	=64
!	!	!	!	!LO:TX:t=P:problem:mixed beam	!	!	!	!	!
8G-\	.	8G-\)yy	.	8D-'/Lyy	.	8ryy	.	8b-'/L)yy	.
!	!	!	!	!	!	!	!	!LO:TUP:b	!
8r	.	8ryy	.	8d-'\Jyy	.	8B-/yy	.	(y<24g-/Lyy	.
.	.	.	.	.	.	.	.	24a-/yy	.
.	.	.	.	.	.	.	.	24g-/JJyy	.
8G-\	.	8G-\yy	.	8ryy	.	8ryy	.	8f'/L)yy	.
!	!	!	!	!LO:ACC:color=dodgerblue	!	!LO:ACC:color=dodgerblue	!	!	!
8r	.	8ryy	.	[y<8An/yy	.	[y<(y<[8cn/yy	.	8e-/J|yy	.
=65	=65	=65	=65	=65	=65	=65	=65	=65	=65
8GG-/	.	8GG-/yy	.	(y<16A/LL]yy	.	16c/LL]]yy	.	(y16e-/LLyy	.
.	.	.	.	16B-/J)yy	.	16d-/J)yy	.	16d-\JJ)yy	.
8r	.	8ryy	.	8B-/Jyy	.	8d-/Jyy	.	4d-^</yy	.
8G-\	.	8G-\yy	.	8ryy	.	8ryy	.	.	.
!	!	!	!	!	!	!	!	!LO:TUP:b	!
8r	.	8ryy	.	[y>8d-\yy	.	8B-/yy	.	(y<24g-/LLyy	.
.	.	.	.	.	.	.	.	24a-/yy	.
.	.	.	.	.	.	.	.	24g-/JJyy	.
=66	=66	=66	=66	=66	=66	=66	=66	=66	=66
!	!	!	!LO:HP:b	!	!	!	!	!	!LO:HP:b
8BB-/	.	8BB-/yy	<	4d-\]yy	.	8ryy	.	8f/L)yy	<
!	!	!	!	!	!LO:HP:b	!	!LO:HP:b	!	!
8r	.	8ryy	.	.	<	8B-'/Lyy	<	8g-/|yy	.
*	*	*	*	*Xtuplet	*	*	*	*	*
8GG-/	.	8GG-/yy	.	12d-\Lyy	.	8d-'/yy	.	8a-/|yy	.
.	.	.	.	12B-\yy	.	.	.	.	.
8r	.	8ryy	[[	.	[	8g-'/Jyy	[[	8b-/Jyy	[
.	.	.	.	12d-\Jyy	.	.	.	.	.
=67	=67	=67	=67	=67	=67	=67	=67	=67	=67
!	!LO:DY:B	!	!LO:HP:b	!	!	!	!	!	!
8AA-/	sf	8FF'/yy	mf	8ryy	.	8ryy	.	8ryy	.
!	!	!	!	!	!LO:DY:b:rj	!	!LO:DY:b:rj	!	!LO:DY:b
8r	.	4FF^</yy	.	8E-/yy	mf	8c-/yy	mf	8a-/yy	mf
!	!LO:DY:b	!	!	!	!	!	!	!	!
8AA-/	p	.	.	8ryy	.	8ryy	.	8ryy	.
!	!	!	!LO:DY:b:rj	!	!LO:DY:b:rj	!	!LO:DY:b:rj	!	!LO:DY:b
8r	.	(y<8FF/yy	p	8B-\yy	p	8e-/yy	p	8g-/yy	p
=68	=68	=68	=68	=68	=68	=68	=68	=68	=68
8D-\	.	8D-\)yy	.	8ryy	.	8ryy	.	8ryy	.
8r	.	8ryy	.	8A-/yy	.	8d-/yy	.	8f/yy	.
8D-\	.	8D-\yy	.	8ryy	.	8ryy	.	8ryy	.
8r	.	8ryy	.	8A-/yy	.	8d-/yy	.	8f/yy	.
!!LO:LB:g=original
=69	=69	=69	=69	=69	=69	=69	=69	=69	=69
8GG-/	.	8GG-/yy	.	8ryy	.	8ryy	.	8ryy	.
!	!	!	!	!	!	!LO:TX:a:i:t=h	!	!	!
8r	.	8ryy	.	8G-/yy	.	8B-/yy	.	8g-/yy	.
8BB-/	.	(y<4BB-/yy	.	8ryy	.	8ryy	.	8ryy	.
!	!	!	!	!	!	!LO:TX:a:i:t=g	!	!	!
8r	.	.	.	[y>(y>[8d-\yy	.	8G-/yy	.	8g-/yy	.
=70	=70	=70	=70	=70	=70	=70	=70	=70	=70
8AA-/	.	4AA-/yy	.	8d-\L]]yy	.	8ryy	.	8ryy	.
!	!	!	!	!LO:ACC:color=dodgerblue	!	!	!	!	!
8r	.	.	.	8cn\J)yy	.	8A-/yy	.	8g-/yy	.
8D-\	.	4D-/)yy	.	8ryy	.	8ryy	.	8ryy	.
!	!	!	!	!LO:ACC:color=dodgerblue	!	!	!	!	!
8r	.	.	.	8cn\yy	.	(y<8A-/yy	.	8f/yy	.
=71	=71	=71	=71	=71	=71	=71	=71	=71	=71
8GG-/	.	8GG-'/Lyy	.	8ryyyy	.	8G-/)yy	.	8ryy	.
8r	.	8D-'/yy	.	4B-^yy	.	4d-^</yy	.	8g-/yy	.
8GG-/	.	8GG-'/yy	.	.	.	.	.	8ryy	.
!	!	!	!	!LO:ACC:color=dodgerblue	!	!LO:ACC:color=dodgerblue	!	!	!
8r	.	8E-'/Jyy	.	(8An/yy	.	(<8cn/yy	.	8g-/yy	.
=72	=72	=72	=72	=72	=72	=72	=72	=72	=72
!	!	!LO:TX:t=P:problem:mixed beam	!	!	!	!	!	!	!
8GG-/	.	8GG-/L	.	8B-/)	.	8d-/)	.	16g-/LL	.
.	.	.	.	.	.	.	.	16f/JJ	.
8r	.	8G-\J	.	4B-^</	.	4G-^</	.	4e-^</	.
4r	.	8GG-/	.	.	.	.	.	.	.
.	.	8r	.	8G-/	.	8ryy	.	8d-/	.
=73	=73	=73	=73	=73	=73	=73	=73	=73	=73
!	!	!LO:TX:a:i:t=piu lento	!	!	!	!LO:TX:a:i:t=piu lento	!	!LO:TX:a:i:t=piu lento	!
2r	.	[<2GG-/	.	8.G-^</L	.	2A-/	.	2c-/	.
.	.	.	.	16F/K	.	.	.	.	.
.	.	.	.	8E-/	.	.	.	.	.
.	.	.	.	8D-/J	.	.	.	.	.
=74	=74	=74	=74	=74	=74	=74	=74	=74	=74
2r	.	2GG-/]	.	4.D-/	.	8.G-^</L	.	8.B-^</L	.
.	.	.	.	.	.	16A-/K	.	16c-/K	.
.	.	.	.	.	.	8B-'/	.	8d-'/	.
.	.	.	.	8r	.	8G-'/J	.	8B-'/J	.
=75	=75	=75	=75	=75	=75	=75	=75	=75	=75
2r	.	[<2GG-^</	.	8.G-^</L	.	2c-/	.	2A-/	.
.	.	.	.	16F/K	.	.	.	.	.
.	.	.	.	8E-/	.	.	.	.	.
.	.	.	.	8D-/J	.	.	.	.	.
=76	=76	=76	=76	=76	=76	=76	=76	=76	=76
!	!	!	!	!	!	!	!	!	!LO:HP:b
2r	.	4GG-/]	.	4D-/	.	4B-/	.	(>16d-/LL	<
.	.	.	.	.	.	.	.	16e-/JJ)	.
!	!	!	!	!	!	!	!	!LO:TX:a:t=P:problem:♭ above	!
!	!	!	!	!	!	!	!	!LO:ACC:color=dodgerblue	!
.	.	.	.	.	.	.	.	4f-X/	[
!	!	!	!	!	!	!LO:ACC:color=dodgerblue	!	!	!
.	.	4EE-/	.	[>4E-/	.	4Gn/	.	.	.
.	.	.	.	.	.	.	.	8f-/	.
=77	=77	=77	=77	=77	=77	=77	=77	=77	=77
2r	.	4AA-/	.	8E-/]	.	2A-/	.	8.fn^</L	.
.	.	.	.	8r	.	.	.	.	.
.	.	.	.	.	.	.	.	16e-/Jk	.
.	.	4BB-/	.	4r	.	.	.	4d#X/	.
=78	=78	=78	=78	=78	=78	=78	=78	=78	=78
2r	.	4E-\	.	2E-/	.	(<4G-/	.	(<4e-/	.
.	.	4EE-/	.	.	.	8B-/L)	.	8g-/L)	.
.	.	.	.	.	.	8d-/J	.	8b-/J	.
=79	=79	=79	=79	=79	=79	=79	=79	=79	=79
!	!	!	!	!	!	!LO:N:acc=#	!	!	!
2r	.	2AA-/	.	4E-/	.	(<8cn'/L	.	(<8a-'/L	.
.	.	.	.	.	.	8B-'/	.	8g-'/	.
.	.	.	.	8A-/L	.	8A-'/	.	8f'/	.
.	.	.	.	8G-/J	.	8c'/J)	.	8e-'/J)	.
=80	=80	=80	=80	=80	=80	=80	=80	=80	=80
!	!LO:DY:b:rj	!	!	!	!	!	!	!	!
[>4D-\	pp	4AA-/	.	(<4F/	.	(>4A-/	.	(<16d-/LL	.
!	!	!	!	!	!	!	!	!LO:TX:a:t=P:problem:♮ above	!
!	!	!	!	!	!	!	!	!LO:ACC:color=dodgerblue	!
.	.	.	.	.	.	.	.	16cn/JJ)	.
.	.	.	.	.	.	.	.	4d-^</	.
!	!	!	!	!LO:ACC:color=dodgerblue	!	!LO:ACC:color=dodgerblue	!	!	!
4D-^>\_>	.	4BB-/	.	4En/	.	4Gn/	.	.	.
.	.	.	.	.	.	.	.	(<[<8d-^</	.
=81	=81	=81	=81	=81	=81	=81	=81	=81	=81
4D-^>\_>	.	4AA-/	.	4F/	.	4A-/	.	16d-/LL]	.
!	!	!	!	!	!	!	!	!LO:TX:a:t=P:problem:♮ above	!
!	!	!	!	!	!	!	!	!LO:ACC:color=dodgerblue	!
.	.	.	.	.	.	.	.	16cn/JJ)	.
.	.	.	.	.	.	.	.	4d-^</	.
!	!	!LO:TX:a:t=P:problem:# below	!	!LO:ACC:color=dodgerblue	!	!LO:ACC:color=dodgerblue	!	!	!
4D-^>\_>	.	4BB#/	.	4En/	.	4Gn/	.	.	.
.	.	.	.	.	.	.	.	[<8d-^</	.
=82	=82	=82	=82	=82	=82	=82	=82	=82	=82
4D-^>\_>	.	4C-/	.	4F/	.	4A-/	.	16d-/LL]	.
!	!	!	!	!	!	!	!	!LO:TX:a:t=P:problem:♮ above	!
!	!	!	!	!	!	!	!	!LO:ACC:color=dodgerblue	!
.	.	.	.	.	.	.	.	16cn/JJ	.
.	.	.	.	.	.	.	.	4d-^</	.
!	!	!LO:ACC:color=dodgerblue	!	!LO:ACC:color=dodgerblue	!	!	!	!	!
4D-^>\]	.	4GGn/	.	4En/)	.	4B-/)	.	.	.
.	.	.	.	.	.	.	.	(<[<8d-^</	.
=83	=83	=83	=83	=83	=83	=83	=83	=83	=83
*	*	*	*	*	*	*	*	*Xtuplet	*
!	!LO:DY:b	!	!LO:DY:b	!	!	!	!LO:DY:b:rj	!	!
8D-\	sf	8AA-/	sf	8F/	sf	8c-/	sf	24d-/LL]	.
!	!	!	!	!	!	!	!	!LO:TX:a:t=P:problem:♭♭ above	!
!	!	!	!	!	!	!	!	!LO:ACC:color=dodgerblue	!
.	.	.	.	.	.	.	.	24e--/	.
.	.	.	.	.	.	.	.	24d-/JJ)	.
!	!	!	!	!	!	!	!	!LO:ACC:color=dodgerblue	!
8r	.	8r	.	8ryy	.	8r	.	16cn/LL	.
.	.	.	.	.	.	.	.	16d-/JJ	.
4r	.	4r	.	4ryy	.	4r	.	(<16e--/LL	.
.	.	.	.	.	.	.	.	16dn/)	.
!	!	!	!	!	!	!	!	!LO:TX:a:t=P:problem:♮ above	!
!	!	!	!	!	!	!	!	!LO:ACC:color=dodgerblue	!
.	.	.	.	.	.	.	.	16cn'/	.
!	!	!	!	!	!	!	!	!LO:TX:a:t=P:problem:♭ above	!
!	!	!	!	!	!	!	!	!LO:ACC:color=dodgerblue	!
.	.	.	.	.	.	.	.	16c-X'/JJ	.
!!LO:PB:g=original
=84	=84	=84	=84	=84	=84	=84	=84	=84	=84
!LO:TX:b:i:t=pizz.	!	!	!	!	!	!	!	!	!
4GG-/	.	2GG-/	.	(<8D-/L	.	4B-/	.	8B-/	.
!	!	!	!	!LO:N:acc=#	!	!	!	!	!
.	.	.	.	8Dn/	.	.	.	8r	.
4r	.	.	.	8E-/	.	4c-/	.	4r	.
.	.	.	.	8F/J)	.	.	.	.	.
=85	=85	=85	=85	=85	=85	=85	=85	=85	=85
2r	.	4GG-/	.	4.G-/	.	4.B-/	.	8.b-/L	.
.	.	.	.	.	.	.	.	16g-/K	.
.	.	4r	.	.	.	.	.	8f/	.
.	.	.	.	8G-/|	.	8B-/	.	8e-/J	.
=86	=86	=86	=86	=86	=86	=86	=86	=86	=86
!	!	!	!	!	!	!	!LO:DY:a	!	!LO:HP:a
!	!	!	!	!	!LO:HP:b	!	!	!LO:ACC:color=dodgerblue	!
2r	.	2r	.	(<8A-^</L	<	(<8c-^</L	<	(<8dn^</L	<
.	.	.	.	8G-/	.	8B-/	.	8e-/	.
!	!	!	!	!	!	!LO:ACC:color=dodgerblue	!	!	!
.	.	.	.	8F/	.	8dn/	.	8f/	.
!	!	!	!	!LO:ACC:color=dodgerblue	!	!LO:ACC:color=dodgerblue	!	!LO:ACC:color=dodgerblue	!
.	.	.	.	8F-X/J)	[[	8d-X/J)	[[	8gn/J)	[[
=87	=87	=87	=87	=87	=87	=87	=87	=87	=87
!	!	!	!LO:DY:b:rj	!LO:ACC:color=dodgerblue	!LO:DY:b:t=sfp.	!	!LO:DY:b:t=fp.	!	!
2r	.	[<2AA-/	fp	(<4F-X/	sfp	4d-/	fp	8b-'/	.
.	.	.	.	.	.	.	.	(<4a-^</	.
.	.	.	.	4E-/	.	[<4c-/	.	.	.
.	.	.	.	.	.	.	.	[<8g-/	.
=88	=88	=88	=88	=88	=88	=88	=88	=88	=88
!	!	!	!	!LO:ACC:color=dodgerblue	!	!	!	!	!
2r	.	2AA-/]	.	4Dn/	.	2c-/_<	.	8g-/]	.
.	.	.	.	.	.	.	.	4f/	.
.	.	.	.	4E-/	.	.	.	.	.
.	.	.	.	.	.	.	.	8e-/)	.
=89	=89	=89	=89	=89	=89	=89	=89	=89	=89
!	!	!	!	!LO:ACC:color=dodgerblue	!	!	!	!	!
4r	.	4AA-/	.	4Fn/)	.	8c-/]	.	8e-/	.
!	!	!	!	!	!	!	!	!LO:ACC:color=dodgerblue	!
.	.	.	.	.	.	4B-/	.	(<4dn/	.
!	!LO:DY:b:rj:t=pp.	!	!	!	!	!	!	!	!
[<4GG-/	pp	[<4GG-/	.	(<[<4E-/	.	.	.	.	.
!	!	!	!	!	!	!	!	!LO:ACC:color=dodgerblue	!
.	.	.	.	.	.	8B-/	.	8d-X/)	.
=90	=90	=90	=90	=90	=90	=90	=90	=90	=90
8GG-/]	.	2GG-/_<	.	4E-/]	.	4B-X/	.	(8d-/L	.
!	!	!	!	!	!	!	!	!LO:TX:a:t=P:problem:♮ above	!
!	!	!	!	!	!	!	!	!LO:ACC:color=dodgerblue	!
8r	.	.	.	.	.	.	.	8cn/J)	.
!	!	!	!	!LO:TX:a:t=P:problem:pierwszy bemol zapisany czarnym atramentem, a drugi niebieską kredką	!	!	!	!LO:TX:a:t=P:problem:♭ above	!
!	!	!	!	!LO:ACC:color=dodgerblue	!	!	!	!LO:ACC:color=dodgerblue	!
4r	.	.	.	8E--/L	.	4A-/	.	4c-X/	.
.	.	.	.	8D-/J)	.	.	.	.	.
=91	=91	=91	=91	=91	=91	=91	=91	=91	=91
!	!	!LO:TX:b:i:t=piu lento.	!	!LO:TX:b:i:t=piu lento.	!	!	!	!LO:TX:a:i:t=piu lento.	!
2r	.	4GG-/]	.	4D-/	.	2Bn/	.	8B-/	.
.	.	.	.	.	.	.	.	8r	.
!	!	!LO:ACC:color=dodgerblue	!	!	!	!	!	!	!
.	.	(<4GGn/	.	[>4E-/	.	.	.	(<4e-^</	.
!!LO:LB:g=original
=92	=92	=92	=92	=92	=92	=92	=92	=92	=92
2r	.	4AA-/	.	4E-/]	.	4c-/	.	8d-/)	.
.	.	.	.	.	.	.	.	8r	.
!	!	!LO:ACC:color=dodgerblue	!	!	!	!LO:ACC:color=dodgerblue	!	!	!
.	.	4AAn/	.	(<4F/	.	8..cn/L	.	8..e-^</L	.
.	.	.	.	.	.	32d-/Jkk	.	32d-/Jkk	.
=93	=93	=93	=93	=93	=93	=93	=93	=93	=93
2r	.	4BB-/	.	4G-/	.	8d-/	.	(<8d-/L	.
!	!	!	!	!	!	!LO:ACC:color=dodgerblue	!	!	!
.	.	.	.	.	.	4dn/	.	8b-/	.
.	.	8C-/L	.	8A-/L	.	.	.	8a-/	.
!	!	!LO:TX:b:t=P:problem:♮ below	!	!LO:TX:a:t=P:problem:♮ above	!	!	!	!	!
!	!	!LO:ACC:color=dodgerblue	!	!LO:ACC:color=dodgerblue	!	!	!	!	!
.	.	8Cn/J	.	8An/J	.	8e-/	.	8g-/J)	.
=94	=94	=94	=94	=94	=94	=94	=94	=94	=94
!LO:TX:a:t=P:problem:fermata zapisana czerwoną kredką	!	!	!	!	!	!LO:ACC:color=dodgerblue	!	!	!
2r;>	.	8D-/)	.	4B-/)	.	4d-X/	.	4g-/	.
.	.	8r	.	.	.	.	.	.	.
!	!	!	!	!	!	!	!	!LO:S:color=dodgerblue	!
!	!	!LO:TX:a:t=P:problem:fermata zapisana czerwoną kredką	!	!LO:TX:a:t=P:problem:fermata zapisana czerwoną kredką	!	!LO:TX:a:t=P:problem:fermata zapisana czerwoną kredką	!	!LO:TX:a:t=P:problem:fermata zapisana czerwoną kredką	!
.	.	(<4D-;>/	.	(<4c-;>/	.	(4f;>/	.	(>4a- [<4d-;>/	.
=95	=95	=95	=95	=95	=95	=95	=95	=95	=95
!	!	!LO:TX:a:i:t=piu moſso.	!	!	!	!	!	!LO:TX:a:t=piu moſso.	!
8r	.	8AA-'/L)	.	8B-/L)	.	8g-/L)	.	8b-L 8d-/])	.
!	!LO:DY:b:rj	!	!LO:DY:b:rj	!	!LO:DY:b:rj	!	!LO:DY:b:rj	!	!LO:DY:b:rj
8GG-/	f	8D-J 8GG-/	f	8B-/J	f	8g-J 8B-/	f	8b-J 8d-/	f
4r	.	8r	.	8r	.	8r	.	8r	.
.	.	(<8BB-/	.	(<8B-/	.	8d-'/	.	(<8g-/	.
=96	=96	=96	=96	=96	=96	=96	=96	=96	=96
8r	.	8AA-'/L)	.	8c-/L)|	.	8d-'/L	.	8f'/L)	.
!	!LO:DY:b:rj	!	!LO:DY:b:rj	!	!LO:DY:b	!	!LO:DY:b:rj	!	!LO:DY:b:rj
8AA-/	sf	8AA-/J	sf	8c-/J	sf	8fJ 8A-/	sf	8a-/J	sf
8r;>	.	8r;>	.	8r;>	.	8r;>	.	8r;>	.
8r	.	8r	.	8r	.	8r	.	8r	.
=97	=97	=97	=97	=97	=97	=97	=97	=97	=97
!	!	!	!	!	!	!	!	!LO:TX:t=P:problem:mixed beam	!
2r	.	8r	.	8r	.	8r	.	(>8d-^</L	.
.	.	(<8BB-^</L	.	(>8d-^<\L	.	8g-'^</L	.	8gg-'\)	.
.	.	8C-/)	.	8dn\)@	.	8a- 8g-'/	.	8ff'\	.
!	!	!LO:ACC:color=dodgerblue	!	!	!	!LO:ACC:color=dodgerblue	!	!	!
.	.	8Cn/J|	.	8e-\J|	.	8anJ 8g-'/	.	8ee-\J|	.
=98	=98	=98	=98	=98	=98	=98	=98	=98	=98
4r	.	8D-'/	.	8g-'\	.	8b- 8d-'/	.	8dd-'\	.
.	.	8r	.	8r	.	8r	.	8r	.
!	!LO:DY:b:rj	!	!LO:DY:b:rj	!	!LO:DY:b:rj	!	!LO:DY:b:rj	!	!LO:DY:b:rj
8D-\	sf	8D-/	sf	8d-\@	sf	8dd-/	sf	8ff 8a-/	sf
8r;>	.	8r;>	.	8r;>	.	8r;>	.	8r;>	.
!!LO:LB:g=original
=99	=99	=99	=99	=99	=99	=99	=99	=99	=99
!	!	!	!	!	!LO:DY:b:rj	!	!LO:DY:b:rj	!	!LO:DY:b:rj
8GG-/	.	8GG-/	.	8b-L 8d-\	ff	8dd-\L	ff	8gg-L 8b-\	ff
8r	.	8r	.	16r	.	16r	.	16r	.
.	.	.	.	16g-\Jk	.	16gg-Jk 16b-\	.	16bb-Jk 16dd-\	.
8.r	.	8.r	.	8g-\	.	8gg- 8b-\	.	8bb- 8dd-\	.
.	.	.	.	16r	.	16r	.	16r	.
!	!LO:DY:b:rj:color=dodgerblue	!	!LO:DY:b:rj:color=dodgerblue	!	!	!	!	!	!
16GG-/	ff	16GG-/	ff	16B- 16D-/	.	16B-/	.	16g- 16G-/	.
=100	=100	=100	=100	=100	=100	=100	=100	=100	=100
2GG-^<;>/	.	2GG-^<;>/	.	2B- 2D-^<;>/	.	2B-^<;>/	.	2g- 2G-^<;>/	.
==	==	==	==	==	==	==	==	==	==
*-	*-	*-	*-	*-	*-	*-	*-	*-	*-
!!!system-decoration: [(s1,s2,s3,s4,s5)]
!!!RDF**kern: @ = marked note, color=dodgerblue
!!!RDF**dynam: > = "dimin", 'fontstyle="italics"
!!!RDF**kern: | = vertical stroke
!!!RDF**kern: > = above
!!!RDF**kern: < = below
!!!EED: Antoni Szymański
!!!EST: 2021-07-23
!!!ENC: Tomasz Grochalski
!!!END: 2021-03-27
